; generated by Slic3r 1.2.9 on 2016-11-20 at 12:17:35

; external perimeters extrusion width = 0.50mm
; perimeters extrusion width = 0.72mm
; infill extrusion width = 0.72mm
; solid infill extrusion width = 0.72mm
; top infill extrusion width = 0.72mm

M107
M104 S200 ; set temperature
G28 ; home all axes
G1 Z5 F5000 ; lift nozzle

M109 S200 ; wait for temperature to be reached
G21 ; set units to millimeters
G90 ; use absolute coordinates
M82 ; use absolute distances for extrusion
G92 E0
G1 Z0.500 F7800.000
G1 E-2.00000 F2400.00000
G92 E0
G1 X79.505 Y77.839 F7800.000
G1 E2.00000 F2400.00000
G1 X81.213 Y76.241 E2.14774 F1800.000
G1 X83.358 Y75.306 E2.29548
G1 X85.000 Y75.107 E2.39994
G1 X115.000 Y75.107 E4.29431
G1 X117.306 Y75.504 E4.44205
G1 X119.346 Y76.650 E4.58979 F1800.000
G1 X120.885 Y78.412 E4.73753
G1 X121.671 Y80.268 E4.86480
G1 X127.326 Y102.055 E6.28618
G1 X127.520 Y103.368 E6.36998
G1 X127.539 Y103.752 E6.39425
G1 X127.472 Y105.113 E6.48028
G1 X127.414 Y105.502 E6.50514
G1 X127.106 Y106.752 E6.58642
G1 X126.803 Y107.490 E6.63680
G1 X126.669 Y107.769 E6.65634
G1 X126.075 Y108.778 E6.73022
G1 X120.495 Y116.161 E7.31459
G1 X119.164 Y117.493 E7.43350
G1 X111.649 Y123.176 E8.02847
G1 X110.424 Y123.833 E8.11625
G1 X109.446 Y124.197 E8.18215
G1 X108.069 Y124.477 E8.27087
G1 X107.683 Y124.516 E8.29535
G1 X106.316 Y124.516 E8.38167
G1 X105.931 Y124.477 E8.40616
G1 X104.880 Y124.289 E8.47355
G1 X83.266 Y118.671 E9.88374
G1 X81.134 Y117.707 E10.03148
G1 X79.503 Y116.158 E10.17350
G1 X74.049 Y108.949 E10.74435
G1 X73.602 Y108.281 E10.79509
G1 X72.968 Y106.937 E10.88890
G1 X72.896 Y106.729 E10.90284
G1 X72.674 Y105.945 E10.95431
G1 X72.480 Y104.631 E11.03811
G1 X72.453 Y103.904 E11.08406
G1 X72.453 Y89.904 E11.96809
G1 X72.528 Y88.887 E12.03252
G1 X72.586 Y88.498 E12.05738
G1 X72.895 Y87.247 E12.13870
G1 X73.197 Y86.510 E12.18904
G1 X73.331 Y86.231 E12.20859
G1 X73.924 Y85.223 E12.28243
G1 X79.459 Y77.899 E12.86210
G1 E10.86210 F2400.00000
G92 E0
G1 X95.776 Y102.639 F7800.000
G1 E2.00000 F2400.00000
G1 X97.172 Y103.401 E2.10046 F1800.000
G1 X98.282 Y103.784 E2.17462
G1 X99.441 Y103.976 E2.24878
G1 X100.615 Y103.971 E2.32294
G1 X101.772 Y103.770 E2.39709
G1 X102.879 Y103.378 E2.47125
G1 X103.905 Y102.807 E2.54541
G1 X104.822 Y102.072 E2.61957
G1 X105.602 Y101.195 E2.69373
G1 X106.224 Y100.199 E2.76789
G1 X106.672 Y99.113 E2.84205
G1 X106.931 Y97.967 E2.91621
G1 X106.995 Y96.795 E2.99037
G1 X106.862 Y95.628 E3.06453
G1 X106.536 Y94.500 E3.13868
G1 X106.026 Y93.442 E3.21284
G1 X105.346 Y92.484 E3.28700
G1 X104.516 Y91.654 E3.36116
G1 X103.558 Y90.974 E3.43532
G1 X102.500 Y90.464 E3.50948
G1 X101.372 Y90.138 E3.58364
G1 X100.205 Y90.005 E3.65780
G1 X99.033 Y90.069 E3.73196
G1 X97.887 Y90.328 E3.80612
G1 X96.801 Y90.776 E3.88027
G1 X95.805 Y91.398 E3.95443
G1 X94.928 Y92.178 E4.02859
G1 X94.193 Y93.095 E4.10275
G1 X93.622 Y94.121 E4.17691
G1 X93.230 Y95.228 E4.25107
G1 X93.029 Y96.385 E4.32523
G1 X93.024 Y97.559 E4.39939
G1 X93.216 Y98.718 E4.47355
G1 X93.599 Y99.828 E4.54771
G1 X94.361 Y101.224 E4.64816
G1 X90.092 Y105.494 E5.02941
G1 X88.826 Y103.646 E5.17087
G1 X88.066 Y102.158 E5.27634
G1 X87.503 Y100.586 E5.38181
G1 X87.147 Y98.954 E5.48729
G1 X87.002 Y97.290 E5.59276
G1 X87.072 Y95.621 E5.69824
G1 X87.356 Y93.975 E5.80371
G1 X87.848 Y92.378 E5.90919
G1 X88.541 Y90.859 E6.01466
G1 X89.423 Y89.440 E6.12014
G1 X90.479 Y88.146 E6.22561
G1 X91.693 Y86.999 E6.33109
G1 X93.044 Y86.016 E6.43656
G1 X94.510 Y85.215 E6.54204
G1 X96.066 Y84.608 E6.64751
G1 X97.687 Y84.206 E6.75298
G1 X99.347 Y84.015 E6.85846
G1 X101.017 Y84.039 E6.96393
G1 X102.670 Y84.276 E7.06941
G1 X104.279 Y84.723 E7.17488
G1 X105.818 Y85.373 E7.28036
G1 X107.261 Y86.215 E7.38583
G1 X108.584 Y87.235 E7.49131
G1 X109.765 Y88.416 E7.59678
G1 X110.785 Y89.739 E7.70226
G1 X111.627 Y91.182 E7.80773
G1 X112.277 Y92.721 E7.91321
G1 X112.724 Y94.330 E8.01868
G1 X112.961 Y95.983 E8.12415
G1 X112.985 Y97.653 E8.22963
G1 X112.794 Y99.313 E8.33510
G1 X112.392 Y100.934 E8.44058
G1 X111.785 Y102.490 E8.54605
G1 X110.984 Y103.956 E8.65153
G1 X110.001 Y105.307 E8.75700
G1 X108.854 Y106.521 E8.86248
G1 X107.560 Y107.577 E8.96795
G1 X106.141 Y108.459 E9.07343
G1 X104.622 Y109.152 E9.17890
G1 X103.025 Y109.644 E9.28438
G1 X101.379 Y109.928 E9.38985
G1 X99.710 Y109.998 E9.49532
G1 X98.046 Y109.853 E9.60080
G1 X96.414 Y109.497 E9.70627
G1 X94.842 Y108.934 E9.81175
G1 X93.354 Y108.174 E9.91722
G1 X91.506 Y106.908 E10.05868
G1 X95.723 Y102.692 E10.43519
G1 X96.056 Y102.224 F7800.000
G1 X95.687 Y102.020 F7800.000
G1 X90.374 Y106.626 F7800.000
G1 X87.133 Y103.923 F7800.000
G1 X86.289 Y95.519 F7800.000
G1 X87.099 Y90.166 F7800.000
G1 X87.142 Y89.995 F7800.000
G1 X87.164 Y89.923 F7800.000
G1 X87.631 Y88.288 F7800.000
G1 X87.674 Y88.872 F7800.000
G1 X87.285 Y88.761 E10.46070 F1800.000
G1 X87.285 Y84.285 E10.74330
G1 X91.760 Y84.285 E11.02582
G1 X91.880 Y84.655 E11.05039
G1 X90.550 Y85.623 E11.15422
G1 X89.169 Y86.928 E11.27421
G1 X87.967 Y88.400 E11.39419
G1 X87.714 Y88.808 E11.42455
G1 X86.849 Y92.591 F7800.000
G1 X86.393 Y92.522 E11.45366 F1800.000
G1 X86.393 Y83.393 E12.03013
G1 X95.525 Y83.393 E12.60677
G1 X95.607 Y83.829 E12.63482
G1 X94.132 Y84.404 E12.73478
G1 X92.565 Y85.261 E12.84751
G1 X91.122 Y86.311 E12.96024
G1 X89.824 Y87.537 E13.07297
G1 X88.695 Y88.920 E13.18570
G1 X87.752 Y90.436 E13.29844
G1 X87.012 Y92.060 E13.41117
G1 X86.871 Y92.519 E13.44146
G1 X86.289 Y95.519 F7800.000
G1 X87.133 Y103.923 F7800.000
G1 X90.374 Y106.626 F7800.000
G1 X95.701 Y100.919 F7800.000
G1 X94.282 Y97.550 F7800.000
G1 X94.274 Y96.495 F7800.000
G1 X94.425 Y95.614 F7800.000
G1 X94.439 Y95.544 F7800.000
G1 X94.456 Y95.491 F7800.000
G1 X94.854 Y95.419 F7800.000
G1 X95.081 Y94.777 E13.48450 F1800.000
G1 X95.528 Y93.977 E13.54231
G1 X96.103 Y93.265 E13.60012
G1 X96.790 Y92.660 E13.65793
G1 X97.570 Y92.180 E13.71574
G1 X98.425 Y91.837 E13.77391
G1 X99.354 Y91.644 E13.83384
G1 X100.229 Y91.607 E13.88915 F1800.000
G1 X101.137 Y91.723 E13.94696
G1 X102.013 Y91.992 E14.00477
G1 X102.830 Y92.404 E14.06258
G1 X103.566 Y92.948 E14.12039
G1 X104.200 Y93.609 E14.17820
G1 X104.712 Y94.368 E14.23601
G1 X105.089 Y95.202 E14.29382
G1 X105.320 Y96.088 E14.35164
G1 X105.398 Y97.000 E14.40945
G1 X105.320 Y97.918 E14.46761
G1 X105.073 Y98.834 E14.52754
G1 X104.712 Y99.632 E14.58285
G1 X104.200 Y100.391 E14.64066
G1 X103.566 Y101.052 E14.69847
G1 X102.830 Y101.596 E14.75628
G1 X102.013 Y102.008 E14.81409
G1 X101.137 Y102.277 E14.87191
G1 X100.229 Y102.393 E14.92972
G1 X99.314 Y102.354 E14.98753
G1 X98.419 Y102.161 E15.04534
G1 X97.570 Y101.820 E15.10315
G1 X96.790 Y101.340 E15.16096
G1 X96.103 Y100.735 E15.21877
G1 X95.528 Y100.023 E15.27658
G1 X95.081 Y99.223 E15.33439
G1 X94.776 Y98.360 E15.39220
G1 X94.622 Y97.458 E15.45002
G1 X94.622 Y96.537 E15.50818
G1 X94.790 Y95.603 E15.56811
G1 X94.829 Y95.490 E15.57565
G1 X95.696 Y95.717 F7800.000
G1 X95.898 Y95.146 E15.61389 F1800.000
G1 X96.270 Y94.479 E15.66210
G1 X96.750 Y93.885 E15.71032
G1 X97.323 Y93.381 E15.75853
G1 X97.973 Y92.980 E15.80675
G1 X98.684 Y92.695 E15.85509
G1 X99.464 Y92.533 E15.90542
G1 X100.191 Y92.502 E15.95136 F1800.000
G1 X100.948 Y92.599 E15.99958
G1 X101.679 Y92.823 E16.04780
G1 X102.360 Y93.167 E16.09601
G1 X102.974 Y93.621 E16.14423
G1 X103.503 Y94.172 E16.19244
G1 X103.930 Y94.804 E16.24066
G1 X104.245 Y95.500 E16.28887
G1 X104.437 Y96.239 E16.33709
G1 X104.502 Y97.000 E16.38530
G1 X104.437 Y97.763 E16.43365
G1 X104.230 Y98.532 E16.48397
G1 X103.930 Y99.196 E16.52992
G1 X103.503 Y99.828 E16.57814
G1 X102.974 Y100.379 E16.62635
G1 X102.360 Y100.833 E16.67457
G1 X101.679 Y101.177 E16.72278
G1 X100.948 Y101.401 E16.77100
G1 X100.191 Y101.498 E16.81921
G1 X99.428 Y101.465 E16.86743
G1 X98.682 Y101.304 E16.91564
G1 X97.973 Y101.020 E16.96386
G1 X97.323 Y100.619 E17.01207
G1 X96.750 Y100.115 E17.06029
G1 X96.270 Y99.521 E17.10851
G1 X95.898 Y98.854 E17.15672
G1 X95.643 Y98.134 E17.20494
G1 X95.514 Y97.382 E17.25315
G1 X95.514 Y96.616 E17.30149
G1 X95.671 Y95.787 E17.35476
G1 X95.354 Y95.352 F7800.000
G1 X94.192 Y95.185 F7800.000
G1 X94.438 Y94.489 E17.40134 F1800.000
G1 X94.936 Y93.594 E17.46600
G1 X95.577 Y92.796 E17.53067
G1 X96.342 Y92.115 E17.59533
G1 X97.211 Y91.572 E17.66000
G1 X98.158 Y91.182 E17.72466
G1 X99.156 Y90.956 E17.78933
G1 X100.179 Y90.900 E17.85400
G1 X101.197 Y91.016 E17.91866
G1 X102.180 Y91.300 E17.98333 F1800.000
G1 X103.103 Y91.745 E18.04799
G1 X103.938 Y92.338 E18.11266
G1 X104.662 Y93.062 E18.17732
G1 X105.255 Y93.897 E18.24199
G1 X105.700 Y94.820 E18.30666
G1 X105.984 Y95.803 E18.37132
G1 X106.100 Y96.821 E18.43599
G1 X106.044 Y97.844 E18.50065
G1 X105.818 Y98.842 E18.56532
G1 X105.428 Y99.789 E18.62998
G1 X104.885 Y100.658 E18.69465
G1 X104.204 Y101.423 E18.75932
G1 X103.406 Y102.064 E18.82398
G1 X102.511 Y102.562 E18.88865
G1 X101.545 Y102.903 E18.95331
G1 X100.536 Y103.079 E19.01798
G1 X99.512 Y103.083 E19.08264
G1 X98.502 Y102.916 E19.14731
G1 X97.534 Y102.582 E19.21198
G1 X95.519 Y101.481 E19.35696
G1 X94.418 Y99.466 E19.50194
G1 X94.084 Y98.498 E19.56660
G1 X93.917 Y97.488 E19.63127
G1 X93.921 Y96.464 E19.69594
G1 X94.097 Y95.455 E19.76060
G1 X94.167 Y95.255 E19.77395
G1 X95.742 Y100.984 F7800.000
G1 X95.333 Y101.667 F7800.000
G1 X90.020 Y106.273 F7800.000
G1 X87.133 Y103.923 F7800.000
G1 X86.326 Y99.057 F7800.000
G1 X86.437 Y93.784 F7800.000
G1 X87.631 Y88.288 F7800.000
G1 X91.933 Y84.434 F7800.000
G1 X99.292 Y83.258 F7800.000
G1 X102.880 Y83.400 F7800.000
G1 X106.432 Y84.002 F7800.000
G1 X106.563 Y84.033 F7800.000
G1 X108.298 Y84.502 F7800.000
G1 X108.152 Y84.648 F7800.000
G1 X108.276 Y84.285 E19.79816 F1800.000
G1 X112.715 Y84.285 E20.07844
G1 X112.715 Y88.724 E20.35873
G1 X112.352 Y88.848 E20.38293
G1 X111.108 Y87.235 E20.51151
G1 X109.765 Y85.892 E20.63150
G1 X108.212 Y84.694 E20.75534
G1 X104.439 Y83.822 F7800.000
G1 X104.526 Y83.393 E20.78300 F1800.000
G1 X113.607 Y83.393 E21.35642
G1 X113.607 Y92.474 E21.92983
G1 X113.178 Y92.561 E21.95749
G1 X112.427 Y90.782 E22.07944
G1 X111.527 Y89.240 E22.19217
G1 X110.437 Y87.826 E22.30490
G1 X109.174 Y86.563 E22.41763
G1 X107.760 Y85.473 E22.53036
G1 X106.218 Y84.573 E22.64309
G1 X104.509 Y83.851 E22.76031
G1 X111.380 Y85.620 F7800.000
G1 X113.349 Y92.302 F7800.000
G1 X113.638 Y99.489 F7800.000
G1 X112.994 Y103.417 F7800.000
G1 X112.826 Y104.077 F7800.000
G1 X112.619 Y104.887 F7800.000
G1 X112.566 Y105.067 F7800.000
G1 X112.345 Y105.120 F7800.000
G1 X112.715 Y105.240 E22.78487 F1800.000
G1 X112.715 Y109.715 E23.06739
G1 X108.239 Y109.715 E23.34999
G1 X108.128 Y109.326 E23.37551
G1 X108.600 Y109.033 E23.41060
G1 X110.072 Y107.831 E23.53059
G1 X111.377 Y106.450 E23.65058
G1 X112.301 Y105.181 E23.74967
G1 X113.171 Y101.393 F7800.000
G1 X113.607 Y101.475 E23.77772 F1800.000
G1 X113.607 Y110.607 E24.35437
G1 X104.478 Y110.607 E24.93084
G1 X104.409 Y110.151 E24.95994
G1 X104.940 Y109.988 E24.99497
G1 X106.564 Y109.248 E25.10770
G1 X108.080 Y108.305 E25.22044
G1 X109.463 Y107.176 E25.33317
G1 X110.689 Y105.878 E25.44590
G1 X111.739 Y104.435 E25.55863
G1 X112.596 Y102.868 E25.67136
G1 X113.143 Y101.463 E25.76658
G1 X112.566 Y105.067 F7800.000
G1 X105.008 Y110.294 F7800.000
G1 X99.678 Y110.749 F7800.000
G1 X96.099 Y110.474 F7800.000
G1 X94.257 Y110.150 F7800.000
G1 X92.522 Y109.733 F7800.000
G1 X92.356 Y109.687 F7800.000
G1 X91.894 Y109.337 F7800.000
G1 X91.777 Y109.715 E25.79151 F1800.000
G1 X87.285 Y109.715 E26.07512
G1 X87.285 Y105.223 E26.35873
G1 X87.663 Y105.106 E26.38366
G1 X89.383 Y107.617 E26.57584
G1 X91.832 Y109.295 E26.76328
G1 X95.627 Y110.163 F7800.000
G1 X95.550 Y110.607 E26.79174 F1800.000
G1 X86.393 Y110.607 E27.37000
G1 X86.393 Y101.450 E27.94826
G1 X86.837 Y101.373 E27.97672
G1 X87.245 Y102.513 E28.05321
G1 X88.057 Y104.103 E28.16594
G1 X90.025 Y106.975 E28.38578
G1 X92.897 Y108.943 E28.60563
G1 X94.487 Y109.755 E28.71836
G1 X95.557 Y110.138 E28.79011
G1 X106.419 Y111.500 F7800.000
G1 X85.500 Y111.500 E30.11105 F1800.000
G1 X85.500 Y104.569 E30.54869
G1 X79.974 Y104.582 E30.89764
G1 X79.861 Y104.203 E30.92259
G1 X79.847 Y103.929 E30.93990
G1 X79.887 Y103.661 E30.95702
G1 X79.996 Y103.430 E30.97316
G1 X85.500 Y103.417 E31.32072
G1 X85.500 Y90.568 E32.13208
G1 X79.976 Y90.581 E32.48090
G1 X79.862 Y90.215 E32.50514
G1 X79.847 Y89.932 E32.52303
G1 X79.894 Y89.641 E32.54164
G1 X79.996 Y89.430 E32.55644
G1 X85.500 Y89.417 E32.90401
G1 X85.500 Y82.500 E33.34082
G1 X114.500 Y82.500 E35.17204
G1 X114.500 Y103.432 E36.49377
G1 X120.024 Y103.419 E36.84259
G1 X120.138 Y103.785 E36.86683
G1 X120.153 Y104.071 E36.88490
G1 X120.113 Y104.339 E36.90201
G1 X120.004 Y104.570 E36.91816
G1 X114.500 Y104.583 E37.26572
G1 X114.500 Y111.500 E37.70253
G1 X107.581 Y111.500 E38.13943
G1 X107.570 Y117.014 E38.48759
G1 X107.302 Y117.124 E38.50592
G1 X107.000 Y117.154 E38.52506
G1 X106.732 Y117.128 E38.54205
G1 X106.430 Y117.010 E38.56254
G1 X106.419 Y111.575 E38.90571
G1 X106.419 Y111.000 F7800.000
G1 X107.000 Y111.054 F7800.000
G1 X107.000 Y116.706 E39.26262 F1800.000
G1 X105.745 Y110.137 F7800.000
G1 X106.888 Y109.889 E39.33648 F1800.000
G1 X107.755 Y109.643 E39.39336
G1 X110.103 Y109.165 F7800.000
G1 X109.704 Y108.766 E39.43168 F1800.000
G1 X110.432 Y108.136 E39.49710
G1 X111.462 Y109.165 E39.59604
G1 X112.165 Y108.510 E39.66134
G1 X111.092 Y107.437 E39.76445
G1 X111.752 Y106.739 E39.82973
G1 X112.165 Y107.152 E39.86941
G1 X112.653 Y104.751 F7800.000
G1 X113.076 Y103.098 E39.97717 F1800.000
G1 X113.136 Y102.777 E39.99777
G1 X114.054 Y104.008 F7800.000
G1 X119.702 Y103.994 E40.35444 F1800.000
G1 X119.644 Y103.917 F7800.000
G1 X114.000 Y103.934 F7800.000
G1 X113.062 Y103.152 F7800.000
G1 X113.415 Y101.298 F7800.000
G1 X113.426 Y101.224 F7800.000
G1 X113.454 Y100.992 F7800.000
G1 X113.642 Y99.439 E40.56387 F1800.000
G1 X113.742 Y97.672 E40.80093
G1 X113.729 Y95.902 E41.03784
G1 X113.605 Y94.174 E41.26975
G1 X113.442 Y92.962 E41.43345
G1 X113.137 Y91.254 F7800.000
G1 X112.981 Y90.491 E41.48265 F1800.000
G1 X112.747 Y89.622 E41.53946
G1 X112.210 Y89.422 E41.57563
G1 X112.142 Y89.352 E41.58179
G1 X112.145 Y87.281 F7800.000
G1 X111.656 Y86.792 E41.65262 F1800.000
G1 X112.165 Y85.254 F7800.000
G1 X111.746 Y84.835 E41.71326 F1800.000
G1 X110.208 Y85.344 E41.87921
G1 X109.719 Y84.855 E41.95004
G1 X107.648 Y84.858 F7800.000
G1 X107.578 Y84.790 E41.95620 F1800.000
G1 X107.378 Y84.253 E41.99237
G1 X106.509 Y84.019 E42.04918
G1 X105.746 Y83.863 E42.09838
G1 X104.038 Y83.558 F7800.000
G1 X102.826 Y83.395 E42.26209 F1800.000
G1 X101.098 Y83.271 E42.49399
G1 X99.328 Y83.258 E42.73090
G1 X97.561 Y83.358 E42.96796
G1 X96.008 Y83.546 E43.17740
G1 X94.223 Y83.864 F7800.000
G1 X93.902 Y83.924 E43.19800 F1800.000
G1 X92.249 Y84.347 E43.30576
G1 X90.261 Y85.248 F7800.000
G1 X89.848 Y84.835 E43.34543 F1800.000
G1 X89.563 Y85.908 E43.42087
G1 X88.490 Y84.835 E43.52398
G1 X87.835 Y85.538 E43.58928
G1 X88.864 Y86.568 E43.68822
G1 X88.234 Y87.296 E43.75364
G1 X87.835 Y86.897 E43.79196
G1 X87.357 Y89.245 F7800.000
G1 X87.111 Y90.112 E43.84884 F1800.000
G1 X86.863 Y91.255 E43.92270
G1 X85.946 Y89.992 F7800.000
G1 X80.298 Y90.006 E44.27936 F1800.000
G1 X80.356 Y90.083 F7800.000
G1 X86.000 Y89.995 F7800.000
G1 X87.099 Y90.166 F7800.000
G1 X86.706 Y91.992 F7800.000
G1 X86.444 Y93.727 F7800.000
G1 X86.554 Y92.998 F7800.000
G1 X86.437 Y93.787 E44.38623 F1800.000
G1 X86.289 Y95.515 E44.61839
G1 X86.251 Y97.287 E44.85565
G1 X86.330 Y99.103 E45.09900
G1 X86.532 Y100.973 E45.35079
G1 X86.862 Y102.795 F7800.000
G1 X87.330 Y104.742 E45.47722 F1800.000
G1 X85.946 Y103.992 F7800.000
