; generated by Slic3r 1.2.9 on 2016-11-20 at 12:18:15

; external perimeters extrusion width = 0.50mm
; perimeters extrusion width = 0.72mm
; infill extrusion width = 0.72mm
; solid infill extrusion width = 0.72mm
; top infill extrusion width = 0.72mm

M107
M104 S200 ; set temperature
G28 ; home all axes
G1 Z5 F5000 ; lift nozzle

M109 S200 ; wait for temperature to be reached
G21 ; set units to millimeters
G90 ; use absolute coordinates
M82 ; use absolute distances for extrusion
G92 E0
G1 Z0.500 F7800.000
G1 E-2.00000 F2400.00000
G92 E0
G1 X79.505 Y77.839 F7800.000
G1 E2.00000 F2400.00000
G1 X81.213 Y76.241 E2.14774 F1800.000
G1 X83.358 Y75.306 E2.29548
G1 X85.000 Y75.107 E2.39994
G1 X115.000 Y75.107 E4.29431
G1 X117.306 Y75.504 E4.44205
G1 X119.346 Y76.650 E4.58979 F1800.000
G1 X120.885 Y78.412 E4.73753
G1 X121.671 Y80.268 E4.86480
G1 X127.326 Y102.055 E6.28618
G1 X127.520 Y103.368 E6.36998
G1 X127.539 Y103.752 E6.39425
G1 X127.472 Y105.113 E6.48028
G1 X127.414 Y105.502 E6.50514
G1 X127.106 Y106.752 E6.58642
G1 X126.803 Y107.490 E6.63680
G1 X126.669 Y107.769 E6.65634
G1 X126.075 Y108.778 E6.73022
G1 X120.495 Y116.161 E7.31459
G1 X119.164 Y117.493 E7.43350
G1 X111.649 Y123.176 E8.02847
G1 X110.424 Y123.833 E8.11625
G1 X109.446 Y124.197 E8.18215
G1 X108.069 Y124.477 E8.27087
G1 X107.683 Y124.516 E8.29535
G1 X106.316 Y124.516 E8.38167
G1 X105.931 Y124.477 E8.40616
G1 X104.880 Y124.289 E8.47355
G1 X83.266 Y118.671 E9.88374
G1 X81.134 Y117.707 E10.03148
G1 X79.503 Y116.158 E10.17350
G1 X74.049 Y108.949 E10.74435
G1 X73.602 Y108.281 E10.79509
G1 X72.968 Y106.937 E10.88890
G1 X72.896 Y106.729 E10.90284
G1 X72.674 Y105.945 E10.95431
G1 X72.480 Y104.631 E11.03811
G1 X72.453 Y103.904 E11.08406
G1 X72.453 Y89.904 E11.96809
G1 X72.528 Y88.887 E12.03252
G1 X72.586 Y88.498 E12.05738
G1 X72.895 Y87.247 E12.13870
G1 X73.197 Y86.510 E12.18904
G1 X73.331 Y86.231 E12.20859
G1 X73.924 Y85.223 E12.28243
G1 X79.459 Y77.899 E12.86210
G1 E10.86210 F2400.00000
G92 E0
G1 X93.788 Y100.384 F7800.000
G1 E2.00000 F2400.00000
G1 X94.884 Y101.775 E2.11184 F1800.000
G1 X95.748 Y102.559 E2.18550
G1 X96.731 Y103.188 E2.25916
G1 X97.804 Y103.645 E2.33283
G1 X98.938 Y103.917 E2.40649
G1 X100.102 Y103.998 E2.48015
G1 X101.263 Y103.883 E2.55382
G1 X102.389 Y103.578 E2.62748
G1 X103.448 Y103.090 E2.70114
G1 X104.412 Y102.432 E2.77481
G1 X105.253 Y101.624 E2.84847
G1 X105.948 Y100.687 E2.92213
G1 X106.478 Y99.648 E2.99580
G1 X106.828 Y98.535 E3.06946
G1 X106.988 Y97.379 E3.14312
G1 X106.954 Y96.213 E3.21679
G1 X106.727 Y95.069 E3.29045
G1 X106.312 Y93.979 E3.36411
G1 X105.723 Y92.972 E3.43778
G1 X104.974 Y92.077 E3.51144
G1 X104.087 Y91.319 E3.58510
G1 X103.087 Y90.719 E3.65876
G1 X102.001 Y90.294 E3.73243
G1 X100.859 Y90.055 E3.80609
G1 X99.693 Y90.008 E3.87975
G1 X98.536 Y90.157 E3.95342
G1 X97.420 Y90.495 E4.02708
G1 X96.375 Y91.014 E4.10074
G1 X95.431 Y91.699 E4.17441
G1 X94.614 Y92.532 E4.24807
G1 X93.947 Y93.488 E4.32173
G1 X93.447 Y94.543 E4.39540
G1 X93.130 Y95.665 E4.46906
G1 X93.004 Y96.825 E4.54272
G1 X93.088 Y98.256 E4.63320
G1 X88.373 Y102.970 E5.05425
G1 X87.537 Y100.702 E5.20691
G1 X87.166 Y99.075 E5.31226
G1 X87.006 Y97.415 E5.41760
G1 X87.059 Y95.747 E5.52295
G1 X87.326 Y94.100 E5.62829
G1 X87.802 Y92.501 E5.73364
G1 X88.479 Y90.976 E5.83898
G1 X89.345 Y89.551 E5.94433
G1 X90.386 Y88.248 E6.04967
G1 X91.586 Y87.088 E6.15502
G1 X92.925 Y86.093 E6.26037
G1 X94.380 Y85.276 E6.36571
G1 X95.927 Y84.653 E6.47106
G1 X97.542 Y84.233 E6.57640
G1 X99.197 Y84.024 E6.68175
G1 X100.865 Y84.028 E6.78709
G1 X102.519 Y84.245 E6.89244
G1 X104.132 Y84.673 E6.99779
G1 X105.677 Y85.304 E7.10313
G1 X107.128 Y86.127 E7.20848
G1 X108.461 Y87.129 E7.31382
G1 X109.656 Y88.294 E7.41917
G1 X110.691 Y89.602 E7.52451
G1 X111.550 Y91.032 E7.62986
G1 X112.219 Y92.560 E7.73520
G1 X112.274 Y92.748 E7.74753
G1 X112.687 Y94.162 E7.84055
G1 X112.946 Y95.810 E7.94590
G1 X112.992 Y97.477 E8.05124
G1 X112.824 Y99.137 E8.15659
G1 X112.445 Y100.762 E8.26193
G1 X111.861 Y102.324 E8.36728
G1 X111.081 Y103.799 E8.47262
G1 X110.119 Y105.162 E8.57797
G1 X108.991 Y106.391 E8.68331
G1 X107.714 Y107.465 E8.78866
G1 X106.311 Y108.367 E8.89401
G1 X104.803 Y109.081 E8.99935
G1 X103.216 Y109.597 E9.10470
G1 X101.577 Y109.905 E9.21004
G1 X99.911 Y110.001 E9.31539
G1 X98.247 Y109.882 E9.42073
G1 X96.612 Y109.552 E9.52608
G1 X95.032 Y109.015 E9.63143
G1 X93.535 Y108.280 E9.73677
G1 X92.144 Y107.359 E9.84212
G1 X90.882 Y106.267 E9.94746
G1 X89.477 Y104.695 E10.08063
G1 X93.735 Y100.437 E10.46087
G1 X94.168 Y100.059 F7800.000
G1 X93.832 Y99.633 F7800.000
G1 X88.527 Y104.230 F7800.000
G1 X87.086 Y104.066 F7800.000
G1 X86.282 Y95.654 F7800.000
G1 X87.063 Y90.313 F7800.000
G1 X87.146 Y89.995 F7800.000
G1 X87.167 Y89.923 F7800.000
G1 X87.582 Y88.442 F7800.000
G1 X87.677 Y88.858 F7800.000
G1 X87.285 Y88.748 E10.48652 F1800.000
G1 X87.285 Y84.285 E10.76833
G1 X91.748 Y84.285 E11.05011
G1 X91.869 Y84.653 E11.07454
G1 X90.429 Y85.725 E11.18794
G1 X89.063 Y87.043 E11.30778
G1 X87.878 Y88.526 E11.42762
G1 X87.716 Y88.794 E11.44744
G1 X86.851 Y92.567 F7800.000
G1 X86.393 Y92.500 E11.47669 F1800.000
G1 X86.393 Y83.393 E12.05180
G1 X95.507 Y83.393 E12.62733
G1 X95.591 Y83.826 E12.65523
G1 X93.993 Y84.470 E12.76399
G1 X92.438 Y85.342 E12.87659
G1 X91.007 Y86.407 E12.98918
G1 X89.725 Y87.645 E13.10177
G1 X88.612 Y89.038 E13.21437
G1 X87.686 Y90.562 E13.32696
G1 X86.963 Y92.192 E13.43956
G1 X86.873 Y92.495 E13.45954
G1 X86.253 Y97.455 F7800.000
G1 X87.072 Y103.995 F7800.000
G1 X88.527 Y104.230 F7800.000
G1 X94.405 Y98.906 F7800.000
G1 X94.261 Y96.857 F7800.000
G1 X94.365 Y95.905 F7800.000
G1 X94.431 Y95.615 F7800.000
G1 X94.463 Y95.494 F7800.000
G1 X94.862 Y95.398 F7800.000
G1 X95.081 Y94.777 E13.50113 F1800.000
G1 X95.528 Y93.977 E13.55894
G1 X96.103 Y93.265 E13.61675
G1 X96.790 Y92.660 E13.67456
G1 X97.570 Y92.180 E13.73237
G1 X98.425 Y91.837 E13.79054
G1 X99.354 Y91.644 E13.85046
G1 X100.229 Y91.607 E13.90577 F1800.000
G1 X101.137 Y91.723 E13.96359
G1 X102.013 Y91.992 E14.02140
G1 X102.830 Y92.404 E14.07921
G1 X103.566 Y92.948 E14.13702
G1 X104.200 Y93.609 E14.19483
G1 X104.712 Y94.368 E14.25264
G1 X105.089 Y95.202 E14.31045
G1 X105.320 Y96.088 E14.36826
G1 X105.398 Y97.000 E14.42607
G1 X105.320 Y97.918 E14.48424
G1 X105.073 Y98.834 E14.54417
G1 X104.712 Y99.632 E14.59948
G1 X104.200 Y100.391 E14.65729
G1 X103.566 Y101.052 E14.71510
G1 X102.830 Y101.596 E14.77291
G1 X102.013 Y102.008 E14.83072
G1 X101.137 Y102.277 E14.88853
G1 X100.229 Y102.393 E14.94634
G1 X99.314 Y102.354 E15.00415
G1 X98.419 Y102.161 E15.06197
G1 X97.570 Y101.820 E15.11978
G1 X96.790 Y101.340 E15.17759
G1 X96.103 Y100.735 E15.23540
G1 X95.528 Y100.023 E15.29321
G1 X95.081 Y99.223 E15.35102
G1 X94.776 Y98.360 E15.40883
G1 X94.622 Y97.458 E15.46664
G1 X94.622 Y96.537 E15.52481
G1 X94.790 Y95.603 E15.58473
G1 X94.837 Y95.468 E15.59373
G1 X95.704 Y95.695 F7800.000
G1 X95.898 Y95.146 E15.63051 F1800.000
G1 X96.270 Y94.479 E15.67873
G1 X96.750 Y93.885 E15.72694
G1 X97.323 Y93.381 E15.77516
G1 X97.973 Y92.980 E15.82337
G1 X98.684 Y92.695 E15.87172
G1 X99.464 Y92.533 E15.92205
G1 X100.191 Y92.502 E15.96799 F1800.000
G1 X100.948 Y92.599 E16.01621
G1 X101.679 Y92.823 E16.06442
G1 X102.360 Y93.167 E16.11264
G1 X102.974 Y93.621 E16.16085
G1 X103.503 Y94.172 E16.20907
G1 X103.930 Y94.804 E16.25728
G1 X104.245 Y95.500 E16.30550
G1 X104.437 Y96.239 E16.35371
G1 X104.502 Y97.000 E16.40193
G1 X104.437 Y97.763 E16.45027
G1 X104.230 Y98.532 E16.50060
G1 X103.930 Y99.196 E16.54655
G1 X103.503 Y99.828 E16.59476
G1 X102.974 Y100.379 E16.64298
G1 X102.360 Y100.833 E16.69119
G1 X101.679 Y101.177 E16.73941
G1 X100.948 Y101.401 E16.78762
G1 X100.191 Y101.498 E16.83584
G1 X99.428 Y101.465 E16.88406
G1 X98.682 Y101.304 E16.93227
G1 X97.973 Y101.020 E16.98049
G1 X97.323 Y100.619 E17.02870
G1 X96.750 Y100.115 E17.07692
G1 X96.270 Y99.521 E17.12513
G1 X95.898 Y98.854 E17.17335
G1 X95.643 Y98.134 E17.22156
G1 X95.514 Y97.382 E17.26978
G1 X95.514 Y96.616 E17.31812
G1 X95.679 Y95.766 E17.37282
G1 X95.362 Y95.330 F7800.000
G1 X94.172 Y95.262 F7800.000
G1 X94.286 Y94.857 E17.39939 F1800.000
G1 X94.721 Y93.938 E17.46362
G1 X95.303 Y93.104 E17.52785
G1 X96.016 Y92.378 E17.59209
G1 X96.839 Y91.780 E17.65632
G1 X97.750 Y91.327 E17.72056
G1 X98.724 Y91.033 E17.78479
G1 X99.733 Y90.903 E17.84902
G1 X100.749 Y90.944 E17.91326
G1 X101.745 Y91.152 E17.97749 F1800.000
G1 X102.692 Y91.523 E18.04173
G1 X103.564 Y92.047 E18.10596
G1 X104.338 Y92.707 E18.17019
G1 X104.990 Y93.488 E18.23443
G1 X105.504 Y94.365 E18.29866
G1 X105.866 Y95.316 E18.36289
G1 X106.064 Y96.314 E18.42713
G1 X106.093 Y97.331 E18.49136
G1 X105.954 Y98.338 E18.55560
G1 X105.649 Y99.309 E18.61983
G1 X105.187 Y100.215 E18.68406
G1 X104.581 Y101.032 E18.74830
G1 X103.847 Y101.737 E18.81253
G1 X103.007 Y102.310 E18.87677
G1 X102.083 Y102.736 E18.94100
G1 X101.101 Y103.002 E19.00523
G1 X100.089 Y103.102 E19.06947
G1 X99.074 Y103.032 E19.13370
G1 X98.085 Y102.794 E19.19794
G1 X97.149 Y102.396 E19.26217
G1 X96.292 Y101.847 E19.32640
G1 X95.539 Y101.164 E19.39064
G1 X93.733 Y98.873 E19.57485
G1 X94.002 Y98.603 E19.59889
G1 X93.899 Y96.848 E19.70996
G1 X94.010 Y95.836 E19.77419
G1 X94.151 Y95.334 E19.80712
G1 X94.278 Y97.424 F7800.000
G1 X93.478 Y99.279 F7800.000
G1 X88.527 Y104.230 F7800.000
G1 X87.086 Y104.066 F7800.000
G1 X86.340 Y99.231 F7800.000
G1 X86.282 Y95.654 F7800.000
G1 X87.167 Y89.923 F7800.000
G1 X90.035 Y85.057 F7800.000
G1 X99.133 Y83.263 F7800.000
G1 X102.715 Y83.383 F7800.000
G1 X106.259 Y83.962 F7800.000
G1 X106.384 Y83.991 F7800.000
G1 X108.117 Y84.448 F7800.000
G1 X108.136 Y84.651 F7800.000
G1 X108.258 Y84.285 E19.83149 F1800.000
G1 X112.715 Y84.285 E20.11289
G1 X112.715 Y88.741 E20.39426
G1 X112.322 Y88.850 E20.41998
G1 X112.162 Y88.584 E20.43959
G1 X110.984 Y87.096 E20.55943
G1 X109.626 Y85.771 E20.67927
G1 X108.196 Y84.696 E20.79219
G1 X104.417 Y83.825 F7800.000
G1 X104.502 Y83.393 E20.82002 F1800.000
G1 X113.607 Y83.393 E21.39499
G1 X113.607 Y92.488 E21.96931
G1 X113.148 Y92.554 E21.99864
G1 X113.060 Y92.255 E22.01830
G1 X112.345 Y90.621 E22.13089
G1 X111.427 Y89.093 E22.24349
G1 X110.320 Y87.695 E22.35608
G1 X109.043 Y86.450 E22.46868
G1 X107.618 Y85.379 E22.58127
G1 X106.067 Y84.499 E22.69386
G1 X104.486 Y83.854 E22.80168
G1 X111.381 Y85.619 F7800.000
G1 X113.723 Y95.756 F7800.000
G1 X113.445 Y101.101 F7800.000
G1 X112.846 Y104.005 F7800.000
G1 X112.678 Y104.679 F7800.000
G1 X112.629 Y104.852 F7800.000
G1 X112.341 Y105.111 F7800.000
G1 X112.715 Y105.229 E22.82643 F1800.000
G1 X112.715 Y109.715 E23.10965
G1 X108.228 Y109.715 E23.39298
G1 X108.115 Y109.330 E23.41830
G1 X108.776 Y108.905 E23.46791
G1 X110.228 Y107.683 E23.58775
G1 X111.512 Y106.286 E23.70759
G1 X112.298 Y105.172 E23.79366
G1 X113.167 Y101.380 F7800.000
G1 X113.607 Y101.459 E23.82191 F1800.000
G1 X113.607 Y110.607 E24.39957
G1 X104.458 Y110.607 E24.97734
G1 X104.386 Y110.155 E25.00623
G1 X105.133 Y109.913 E25.05586
G1 X106.745 Y109.149 E25.16845
G1 X108.245 Y108.185 E25.28105
G1 X109.609 Y107.037 E25.39364
G1 X110.816 Y105.724 E25.50623
G1 X111.844 Y104.267 E25.61883
G1 X112.677 Y102.691 E25.73142
G1 X113.141 Y101.450 E25.81507
G1 X112.629 Y104.852 F7800.000
G1 X105.218 Y110.255 F7800.000
G1 X98.158 Y110.689 F7800.000
G1 X94.589 Y110.218 F7800.000
G1 X92.755 Y109.796 F7800.000
G1 X92.598 Y109.754 F7800.000
G1 X91.892 Y109.333 F7800.000
G1 X91.777 Y109.715 E25.84022 F1800.000
G1 X87.285 Y109.715 E26.12386
G1 X87.285 Y106.461 E26.32929
G1 X87.433 Y106.435 E26.33876
G1 X88.069 Y105.799 E26.39554
G1 X89.627 Y107.543 E26.54320
G1 X91.063 Y108.784 E26.66304
G1 X91.830 Y109.292 E26.72112
G1 X95.625 Y110.159 F7800.000
G1 X95.551 Y110.607 E26.74981 F1800.000
G1 X86.393 Y110.607 E27.32811
G1 X86.393 Y101.455 E27.90603
G1 X86.834 Y101.376 E27.93435
G1 X88.017 Y104.588 E28.15049
G1 X88.105 Y104.500 E28.15834
G1 X90.254 Y106.905 E28.36200
G1 X91.603 Y108.072 E28.47459
G1 X93.090 Y109.056 E28.58719
G1 X94.691 Y109.841 E28.69978
G1 X95.554 Y110.135 E28.75737
G1 X106.419 Y111.500 F7800.000
G1 X85.500 Y111.500 E30.07831 F1800.000
G1 X85.500 Y104.569 E30.51595
G1 X79.974 Y104.582 E30.86490
G1 X79.861 Y104.203 E30.88985
G1 X79.847 Y103.929 E30.90716
G1 X79.887 Y103.661 E30.92427
G1 X79.996 Y103.430 E30.94042
G1 X85.500 Y103.417 E31.28798
G1 X85.500 Y90.568 E32.09934
G1 X79.976 Y90.581 E32.44816
G1 X79.862 Y90.215 E32.47240
G1 X79.847 Y89.932 E32.49028
G1 X79.894 Y89.641 E32.50890
G1 X79.996 Y89.430 E32.52370
G1 X85.500 Y89.417 E32.87127
G1 X85.500 Y82.500 E33.30808
G1 X114.500 Y82.500 E35.13930
G1 X114.500 Y103.432 E36.46103
G1 X120.024 Y103.419 E36.80985
G1 X120.138 Y103.785 E36.83409
G1 X120.153 Y104.071 E36.85216
G1 X120.113 Y104.339 E36.86927
G1 X120.004 Y104.570 E36.88541
G1 X114.500 Y104.583 E37.23298
G1 X114.500 Y111.500 E37.66978
G1 X107.581 Y111.500 E38.10669
G1 X107.570 Y117.014 E38.45485
G1 X107.302 Y117.124 E38.47318
G1 X107.000 Y117.154 E38.49232
G1 X106.732 Y117.128 E38.50931
G1 X106.430 Y117.010 E38.52980
G1 X106.419 Y111.575 E38.87297
G1 X106.419 Y111.000 F7800.000
G1 X107.000 Y111.054 F7800.000
G1 X107.000 Y116.706 E39.22988 F1800.000
G1 X105.756 Y110.138 F7800.000
G1 X107.102 Y109.835 E39.31699 F1800.000
G1 X107.743 Y109.648 E39.35917
G1 X110.104 Y109.165 F7800.000
G1 X109.705 Y108.766 E39.39766 F1800.000
G1 X110.432 Y108.129 E39.46365
G1 X111.468 Y109.165 E39.56367
G1 X112.165 Y108.498 E39.62954
G1 X111.099 Y107.432 E39.73244
G1 X111.752 Y106.721 E39.79835
G1 X112.165 Y107.133 E39.83820
G1 X112.661 Y104.744 F7800.000
G1 X113.136 Y102.807 E39.96416 F1800.000
G1 X114.054 Y104.008 F7800.000
G1 X119.702 Y103.994 E40.32082 F1800.000
G1 X119.644 Y103.917 F7800.000
G1 X114.000 Y104.005 F7800.000
G1 X113.107 Y102.947 F7800.000
G1 X113.445 Y101.101 F7800.000
G1 X113.455 Y101.031 F7800.000
G1 X113.461 Y100.979 F7800.000
G1 X113.659 Y99.250 E40.55377 F1800.000
G1 X113.746 Y97.485 E40.79039
G1 X113.721 Y95.717 E41.02715
G1 X113.586 Y93.991 E41.25889
G1 X113.441 Y92.963 E41.39798
G1 X113.137 Y91.258 F7800.000
G1 X112.936 Y90.300 E41.45980 F1800.000
G1 X112.638 Y89.226 E41.53019
G1 X112.145 Y87.290 F7800.000
G1 X111.644 Y86.789 E41.60308 F1800.000
G1 X112.165 Y85.254 F7800.000
G1 X111.746 Y84.835 E41.66399 F1800.000
G1 X110.122 Y85.266 E41.83692
G1 X109.721 Y84.866 E41.89517
G1 X107.764 Y84.355 F7800.000
G1 X106.330 Y83.977 E41.98883 F1800.000
G1 X105.755 Y83.863 E42.02584
G1 X104.015 Y83.553 F7800.000
G1 X102.662 Y83.378 E42.20849 F1800.000
G1 X100.937 Y83.265 E42.44002
G1 X99.170 Y83.262 E42.67653
G1 X97.404 Y83.372 E42.91346
G1 X95.992 Y83.551 E43.10397
G1 X94.239 Y83.863 F7800.000
G1 X93.740 Y83.961 E43.13607 F1800.000
G1 X92.240 Y84.353 E43.23398
G1 X90.276 Y85.248 F7800.000
G1 X89.863 Y84.835 E43.27378 F1800.000
G1 X89.567 Y85.902 E43.34920
G1 X88.500 Y84.835 E43.45200
G1 X87.835 Y85.531 E43.51765
G1 X88.874 Y86.571 E43.61781
G1 X88.234 Y87.292 E43.68355
G1 X87.835 Y86.894 E43.72197
G1 X87.361 Y89.233 F7800.000
G1 X87.074 Y90.259 E43.78926 F1800.000
G1 X86.863 Y91.258 E43.85371
G1 X85.946 Y89.992 F7800.000
G1 X80.298 Y90.006 E44.21037 F1800.000
G1 X80.356 Y90.083 F7800.000
G1 X86.000 Y89.995 F7800.000
G1 X87.097 Y90.175 F7800.000
G1 X86.696 Y92.046 F7800.000
G1 X86.680 Y92.134 F7800.000
G1 X86.558 Y92.975 F7800.000
G1 X86.421 Y93.925 E44.33876 F1800.000
G1 X86.282 Y95.650 E44.57054
G1 X86.253 Y97.419 E44.80737
G1 X86.336 Y99.184 E45.04394
G1 X86.537 Y100.976 E45.28535
G1 X86.864 Y102.819 F7800.000
G1 X87.086 Y104.068 E45.36542 F1800.000
G1 X87.086 Y104.068 F7800.000
G1 X87.402 Y105.835 E45.60579 F1800.000
