; generated by Slic3r 1.2.9 on 2016-11-20 at 12:08:07

; external perimeters extrusion width = 0.50mm
; perimeters extrusion width = 0.72mm
; infill extrusion width = 0.72mm
; solid infill extrusion width = 0.72mm
; top infill extrusion width = 0.72mm

M107
M104 S200 ; set temperature
G28 ; home all axes
G1 Z5 F5000 ; lift nozzle

M109 S200 ; wait for temperature to be reached
G21 ; set units to millimeters
G90 ; use absolute coordinates
M82 ; use absolute distances for extrusion
G92 E0
G1 Z0.500 F7800.000
G1 E-2.00000 F2400.00000
G92 E0
G1 X79.505 Y77.839 F7800.000
G1 E2.00000 F2400.00000
G1 X81.213 Y76.241 E2.14774 F1800.000
G1 X83.358 Y75.306 E2.29548
G1 X85.000 Y75.107 E2.39994
G1 X115.000 Y75.107 E4.29431
G1 X117.306 Y75.504 E4.44205
G1 X119.346 Y76.650 E4.58979 F1800.000
G1 X120.885 Y78.412 E4.73753
G1 X121.671 Y80.268 E4.86480
G1 X127.326 Y102.055 E6.28618
G1 X127.520 Y103.368 E6.36998
G1 X127.539 Y103.752 E6.39425
G1 X127.472 Y105.113 E6.48028
G1 X127.414 Y105.502 E6.50514
G1 X127.106 Y106.752 E6.58642
G1 X126.803 Y107.490 E6.63680
G1 X126.669 Y107.769 E6.65634
G1 X126.075 Y108.778 E6.73022
G1 X120.495 Y116.161 E7.31459
G1 X119.164 Y117.493 E7.43350
G1 X111.649 Y123.176 E8.02847
G1 X110.424 Y123.833 E8.11625
G1 X109.446 Y124.197 E8.18215
G1 X108.069 Y124.477 E8.27087
G1 X107.683 Y124.516 E8.29535
G1 X106.316 Y124.516 E8.38167
G1 X105.931 Y124.477 E8.40616
G1 X104.880 Y124.289 E8.47355
G1 X83.266 Y118.671 E9.88374
G1 X81.134 Y117.707 E10.03148
G1 X79.503 Y116.158 E10.17350
G1 X74.049 Y108.949 E10.74435
G1 X73.602 Y108.281 E10.79509
G1 X72.968 Y106.937 E10.88890
G1 X72.896 Y106.729 E10.90284
G1 X72.674 Y105.945 E10.95431
G1 X72.480 Y104.631 E11.03811
G1 X72.453 Y103.904 E11.08406
G1 X72.453 Y89.904 E11.96809
G1 X72.528 Y88.887 E12.03252
G1 X72.586 Y88.498 E12.05738
G1 X72.895 Y87.247 E12.13870
G1 X73.197 Y86.510 E12.18904
G1 X73.331 Y86.231 E12.20859
G1 X73.924 Y85.223 E12.28243
G1 X79.459 Y77.899 E12.86210
G1 E10.86210 F2400.00000
G92 E0
G1 X94.030 Y108.627 F7800.000
G1 E2.00000 F2400.00000
G1 X98.744 Y103.912 E2.42105 F1800.000
G1 X100.175 Y103.996 E2.51152
G1 X101.335 Y103.870 E2.58518
G1 X102.457 Y103.553 E2.65885
G1 X103.512 Y103.053 E2.73251
G1 X104.468 Y102.386 E2.80617
G1 X105.301 Y101.569 E2.87984
G1 X105.986 Y100.625 E2.95350
G1 X106.505 Y99.580 E3.02716
G1 X106.843 Y98.464 E3.10083
G1 X106.992 Y97.307 E3.17449
G1 X106.945 Y96.141 E3.24815
G1 X106.706 Y94.999 E3.32182
G1 X106.281 Y93.913 E3.39548
G1 X105.681 Y92.913 E3.46914
G1 X104.923 Y92.026 E3.54281
G1 X104.028 Y91.277 E3.61647
G1 X103.021 Y90.688 E3.69013
G1 X101.931 Y90.273 E3.76380
G1 X100.787 Y90.046 E3.83746
G1 X99.621 Y90.012 E3.91112
G1 X98.465 Y90.172 E3.98479
G1 X97.352 Y90.522 E4.05845
G1 X96.313 Y91.052 E4.13211
G1 X95.376 Y91.747 E4.20578
G1 X94.568 Y92.588 E4.27944
G1 X93.910 Y93.552 E4.35310
G1 X93.422 Y94.611 E4.42677
G1 X93.117 Y95.737 E4.50043
G1 X93.002 Y96.898 E4.57409
G1 X93.083 Y98.062 E4.64775
G1 X93.355 Y99.196 E4.72142
G1 X93.812 Y100.269 E4.79508
G1 X94.441 Y101.252 E4.86874
G1 X95.225 Y102.116 E4.94241
G1 X96.616 Y103.212 E5.05425
G1 X92.305 Y107.523 E5.43922
G1 X90.733 Y106.118 E5.57239
G1 X89.641 Y104.856 E5.67773
G1 X88.720 Y103.465 E5.78308
G1 X87.985 Y101.968 E5.88842
G1 X87.448 Y100.388 E5.99377
G1 X87.118 Y98.753 E6.09911
G1 X86.999 Y97.089 E6.20446
G1 X87.095 Y95.423 E6.30981
G1 X87.403 Y93.784 E6.41515
G1 X87.919 Y92.197 E6.52050
G1 X88.633 Y90.689 E6.62584
G1 X89.535 Y89.286 E6.73119
G1 X90.609 Y88.009 E6.83653
G1 X91.838 Y86.881 E6.94188
G1 X93.201 Y85.919 E7.04723
G1 X94.676 Y85.139 E7.15257
G1 X96.238 Y84.555 E7.25792
G1 X97.863 Y84.176 E7.36326
G1 X98.094 Y84.152 E7.37795
G1 X99.523 Y84.008 E7.46861
G1 X101.190 Y84.054 E7.57395
G1 X102.838 Y84.313 E7.67930
G1 X104.440 Y84.781 E7.78464
G1 X105.968 Y85.450 E7.88999
G1 X107.398 Y86.309 E7.99534
G1 X108.706 Y87.344 E8.10068
G1 X109.871 Y88.539 E8.20603
G1 X110.873 Y89.872 E8.31137
G1 X111.696 Y91.323 E8.41672
G1 X112.327 Y92.868 E8.52206
G1 X112.755 Y94.481 E8.62741
G1 X112.972 Y96.135 E8.73276
G1 X112.976 Y97.803 E8.83810
G1 X112.767 Y99.458 E8.94345
G1 X112.347 Y101.073 E9.04879
G1 X111.724 Y102.620 E9.15414
G1 X110.907 Y104.075 E9.25948
G1 X109.912 Y105.414 E9.36483
G1 X108.752 Y106.614 E9.47017
G1 X107.449 Y107.655 E9.57552
G1 X106.024 Y108.521 E9.68087
G1 X104.499 Y109.198 E9.78621
G1 X102.900 Y109.674 E9.89156
G1 X101.253 Y109.941 E9.99690
G1 X99.585 Y109.994 E10.10225
G1 X97.925 Y109.834 E10.20759
G1 X96.298 Y109.463 E10.31294
G1 X94.100 Y108.653 E10.46087
G1 X93.629 Y108.328 F7800.000
G1 X98.550 Y103.400 F7800.000
G1 X92.770 Y108.473 F7800.000
G1 X87.768 Y106.135 F7800.000
G1 X86.249 Y97.078 F7800.000
G1 X86.763 Y91.685 F7800.000
G1 X87.153 Y89.952 F7800.000
G1 X87.192 Y89.802 F7800.000
G1 X87.701 Y88.069 F7800.000
G1 X87.670 Y88.885 F7800.000
G1 X87.285 Y88.772 E10.48619 F1800.000
G1 X87.285 Y84.285 E10.76952
G1 X91.771 Y84.285 E11.05274
G1 X91.889 Y84.659 E11.07749
G1 X90.714 Y85.488 E11.16829
G1 X89.317 Y86.772 E11.28813
G1 X88.095 Y88.224 E11.40797
G1 X87.711 Y88.822 E11.45285
G1 X86.845 Y92.614 F7800.000
G1 X86.393 Y92.542 E11.48173 F1800.000
G1 X86.393 Y83.393 E12.05950
G1 X95.541 Y83.393 E12.63716
G1 X95.620 Y83.833 E12.66541
G1 X94.309 Y84.323 E12.75380
G1 X92.733 Y85.156 E12.86640
G1 X91.276 Y86.184 E12.97899
G1 X89.963 Y87.391 E13.09158
G1 X88.815 Y88.755 E13.20418
G1 X87.851 Y90.255 E13.31677
G1 X87.087 Y91.867 E13.42937
G1 X86.868 Y92.543 E13.47426
G1 X86.249 Y97.078 F7800.000
G1 X87.246 Y104.402 F7800.000
G1 X88.609 Y108.391 F7800.000
G1 X92.684 Y108.571 F7800.000
G1 X98.036 Y102.887 F7800.000
G1 X94.796 Y99.421 F7800.000
G1 X94.278 Y97.424 F7800.000
G1 X94.289 Y96.451 F7800.000
G1 X94.431 Y95.615 F7800.000
G1 X94.464 Y95.494 F7800.000
G1 X94.847 Y95.441 F7800.000
G1 X95.081 Y94.777 E13.51878 F1800.000
G1 X95.528 Y93.977 E13.57659
G1 X96.103 Y93.265 E13.63440
G1 X96.790 Y92.660 E13.69221
G1 X97.570 Y92.180 E13.75002
G1 X98.425 Y91.837 E13.80819
G1 X99.354 Y91.644 E13.86811
G1 X100.229 Y91.607 E13.92343 F1800.000
G1 X101.137 Y91.723 E13.98124
G1 X102.013 Y91.992 E14.03905
G1 X102.830 Y92.404 E14.09686
G1 X103.566 Y92.948 E14.15467
G1 X104.200 Y93.609 E14.21248
G1 X104.712 Y94.368 E14.27029
G1 X105.089 Y95.202 E14.32810
G1 X105.320 Y96.088 E14.38591
G1 X105.398 Y97.000 E14.44373
G1 X105.320 Y97.918 E14.50189
G1 X105.073 Y98.834 E14.56182
G1 X104.712 Y99.632 E14.61713
G1 X104.200 Y100.391 E14.67494
G1 X103.566 Y101.052 E14.73275
G1 X102.830 Y101.596 E14.79056
G1 X102.013 Y102.008 E14.84837
G1 X101.137 Y102.277 E14.90618
G1 X100.229 Y102.393 E14.96400
G1 X99.314 Y102.354 E15.02181
G1 X98.419 Y102.161 E15.07962
G1 X97.570 Y101.820 E15.13743
G1 X96.790 Y101.340 E15.19524
G1 X96.103 Y100.735 E15.25305
G1 X95.528 Y100.023 E15.31086
G1 X95.081 Y99.223 E15.36867
G1 X94.776 Y98.360 E15.42648
G1 X94.622 Y97.458 E15.48429
G1 X94.622 Y96.537 E15.54246
G1 X94.790 Y95.603 E15.60239
G1 X94.822 Y95.512 E15.60845
G1 X95.688 Y95.739 F7800.000
G1 X95.898 Y95.146 E15.64816 F1800.000
G1 X96.270 Y94.479 E15.69638
G1 X96.750 Y93.885 E15.74460
G1 X97.323 Y93.381 E15.79281
G1 X97.973 Y92.980 E15.84103
G1 X98.684 Y92.695 E15.88937
G1 X99.464 Y92.533 E15.93970
G1 X100.191 Y92.502 E15.98564 F1800.000
G1 X100.948 Y92.599 E16.03386
G1 X101.679 Y92.823 E16.08207
G1 X102.360 Y93.167 E16.13029
G1 X102.974 Y93.621 E16.17851
G1 X103.503 Y94.172 E16.22672
G1 X103.930 Y94.804 E16.27494
G1 X104.245 Y95.500 E16.32315
G1 X104.437 Y96.239 E16.37137
G1 X104.502 Y97.000 E16.41958
G1 X104.437 Y97.763 E16.46793
G1 X104.230 Y98.532 E16.51825
G1 X103.930 Y99.196 E16.56420
G1 X103.503 Y99.828 E16.61241
G1 X102.974 Y100.379 E16.66063
G1 X102.360 Y100.833 E16.70885
G1 X101.679 Y101.177 E16.75706
G1 X100.948 Y101.401 E16.80528
G1 X100.191 Y101.498 E16.85349
G1 X99.428 Y101.465 E16.90171
G1 X98.682 Y101.304 E16.94992
G1 X97.973 Y101.020 E16.99814
G1 X97.323 Y100.619 E17.04635
G1 X96.750 Y100.115 E17.09457
G1 X96.270 Y99.521 E17.14278
G1 X95.898 Y98.854 E17.19100
G1 X95.643 Y98.134 E17.23922
G1 X95.514 Y97.382 E17.28743
G1 X95.514 Y96.616 E17.33577
G1 X95.663 Y95.809 E17.38757
G1 X95.345 Y95.375 F7800.000
G1 X94.154 Y95.323 F7800.000
G1 X94.264 Y94.917 E17.41411 F1800.000
G1 X94.690 Y93.993 E17.47834
G1 X95.263 Y93.153 E17.54258
G1 X95.968 Y92.419 E17.60681
G1 X96.785 Y91.813 E17.67105
G1 X97.691 Y91.351 E17.73528
G1 X98.662 Y91.046 E17.79951
G1 X99.669 Y90.907 E17.86375
G1 X100.686 Y90.936 E17.92798
G1 X101.684 Y91.134 E17.99221 F1800.000
G1 X102.635 Y91.496 E18.05645
G1 X103.512 Y92.010 E18.12068
G1 X104.293 Y92.662 E18.18492
G1 X104.953 Y93.436 E18.24915
G1 X105.477 Y94.308 E18.31338
G1 X105.848 Y95.255 E18.37762
G1 X106.056 Y96.251 E18.44185
G1 X106.097 Y97.267 E18.50609
G1 X105.967 Y98.276 E18.57032
G1 X105.673 Y99.250 E18.63455
G1 X105.220 Y100.161 E18.69879
G1 X104.622 Y100.984 E18.76302
G1 X103.896 Y101.697 E18.82726
G1 X103.062 Y102.279 E18.89149
G1 X102.143 Y102.714 E18.95572
G1 X101.164 Y102.990 E19.01996
G1 X100.152 Y103.101 E19.08419
G1 X98.397 Y102.998 E19.19526
G1 X98.127 Y103.267 E19.21930
G1 X95.836 Y101.461 E19.40351
G1 X95.153 Y100.708 E19.46775
G1 X94.604 Y99.851 E19.53198
G1 X94.206 Y98.915 E19.59621
G1 X93.968 Y97.926 E19.66045
G1 X93.898 Y96.911 E19.72468
G1 X93.998 Y95.899 E19.78892
G1 X94.134 Y95.395 E19.82188
G1 X96.083 Y101.197 F7800.000
G1 X97.721 Y103.522 F7800.000
G1 X92.770 Y108.473 F7800.000
G1 X93.123 Y108.826 F7800.000
G1 X96.036 Y110.465 F7800.000
G1 X101.346 Y110.718 F7800.000
G1 X108.765 Y109.353 F7800.000
G1 X112.846 Y104.005 F7800.000
G1 X113.623 Y99.648 F7800.000
G1 X113.735 Y96.067 F7800.000
G1 X112.495 Y88.694 F7800.000
G1 X110.716 Y85.339 F7800.000
G1 X108.691 Y84.624 F7800.000
G1 X108.487 Y84.560 F7800.000
G1 X108.150 Y84.678 F7800.000
G1 X108.259 Y84.285 E19.84760 F1800.000
G1 X112.715 Y84.285 E20.12897
G1 X112.715 Y88.742 E20.41037
G1 X112.349 Y88.864 E20.43473
G1 X111.229 Y87.374 E20.55239
G1 X109.904 Y86.016 E20.67223
G1 X108.416 Y84.838 E20.79208
G1 X108.214 Y84.716 E20.80695
G1 X104.446 Y83.852 F7800.000
G1 X104.512 Y83.393 E20.83627 F1800.000
G1 X113.607 Y83.393 E21.41059
G1 X113.607 Y92.498 E21.98556
G1 X113.175 Y92.583 E22.01339
G1 X112.501 Y90.933 E22.12594
G1 X111.621 Y89.382 E22.23854
G1 X110.550 Y87.957 E22.35113
G1 X109.305 Y86.680 E22.46372
G1 X107.907 Y85.573 E22.57632
G1 X106.379 Y84.655 E22.68891
G1 X104.745 Y83.940 E22.80151
G1 X104.518 Y83.873 E22.81643
G1 X110.716 Y85.339 F7800.000
G1 X113.009 Y90.616 F7800.000
G1 X113.621 Y94.334 F7800.000
G1 X113.389 Y101.458 F7800.000
G1 X112.846 Y104.005 F7800.000
G1 X112.573 Y105.046 F7800.000
G1 X112.517 Y105.233 F7800.000
G1 X112.347 Y105.131 F7800.000
G1 X112.715 Y105.252 E22.84086 F1800.000
G1 X112.715 Y109.715 E23.12264
G1 X108.252 Y109.715 E23.40445
G1 X108.142 Y109.323 E23.43010
G1 X108.474 Y109.122 E23.45466
G1 X109.957 Y107.937 E23.57450
G1 X111.275 Y106.571 E23.69434
G1 X112.303 Y105.191 E23.80300
G1 X113.174 Y101.409 F7800.000
G1 X113.607 Y101.493 E23.83090 F1800.000
G1 X113.607 Y110.607 E24.40642
G1 X104.500 Y110.607 E24.98154
G1 X104.433 Y110.149 E25.01079
G1 X104.808 Y110.037 E25.03551
G1 X106.438 Y109.314 E25.14811
G1 X107.962 Y108.388 E25.26070
G1 X109.355 Y107.275 E25.37329
G1 X110.593 Y105.993 E25.48589
G1 X111.658 Y104.562 E25.59848
G1 X112.530 Y103.007 E25.71108
G1 X113.146 Y101.479 E25.81511
G1 X112.517 Y105.233 F7800.000
G1 X104.866 Y110.320 F7800.000
G1 X97.812 Y110.664 F7800.000
G1 X95.967 Y110.455 F7800.000
G1 X91.911 Y109.575 F7800.000
G1 X91.260 Y109.402 F7800.000
G1 X91.201 Y108.931 F7800.000
G1 X90.565 Y109.567 E25.87189 F1800.000
G1 X90.539 Y109.715 E25.88136
G1 X87.285 Y109.715 E26.08679
G1 X87.285 Y105.223 E26.37043
G1 X87.667 Y105.108 E26.39557
G1 X88.216 Y105.937 E26.45839
G1 X89.457 Y107.373 E26.57824
G1 X91.145 Y108.881 E26.72116
G1 X95.624 Y110.166 F7800.000
G1 X95.545 Y110.607 E26.74948 F1800.000
G1 X86.393 Y110.607 E27.32740
G1 X86.393 Y101.449 E27.90570
G1 X86.841 Y101.375 E27.93439
G1 X87.159 Y102.309 E27.99671
G1 X87.944 Y103.910 E28.10931
G1 X88.928 Y105.397 E28.22190
G1 X90.095 Y106.746 E28.33449
G1 X92.500 Y108.895 E28.53815
G1 X92.412 Y108.983 E28.54601
G1 X95.553 Y110.140 E28.75740
G1 X106.419 Y111.500 F7800.000
G1 X85.500 Y111.500 E30.07834 F1800.000
G1 X85.500 Y104.569 E30.51599
G1 X79.974 Y104.582 E30.86493
G1 X79.861 Y104.203 E30.88988
G1 X79.847 Y103.929 E30.90719
G1 X79.887 Y103.661 E30.92431
G1 X79.996 Y103.430 E30.94045
G1 X85.500 Y103.417 E31.28802
G1 X85.500 Y90.568 E32.09937
G1 X79.976 Y90.581 E32.44819
G1 X79.862 Y90.215 E32.47243
G1 X79.847 Y89.932 E32.49032
G1 X79.894 Y89.641 E32.50893
G1 X79.996 Y89.430 E32.52374
G1 X85.500 Y89.417 E32.87131
G1 X85.500 Y82.500 E33.30811
G1 X114.500 Y82.500 E35.13933
G1 X114.500 Y103.432 E36.46107
G1 X120.024 Y103.419 E36.80988
G1 X120.138 Y103.785 E36.83412
G1 X120.153 Y104.071 E36.85219
G1 X120.113 Y104.339 E36.86931
G1 X120.004 Y104.570 E36.88545
G1 X114.500 Y104.583 E37.23302
G1 X114.500 Y111.500 E37.66982
G1 X107.581 Y111.500 E38.10672
G1 X107.570 Y117.014 E38.45488
G1 X107.302 Y117.124 E38.47321
G1 X107.000 Y117.154 E38.49235
G1 X106.732 Y117.128 E38.50935
G1 X106.430 Y117.010 E38.52984
G1 X106.419 Y111.575 E38.87300
G1 X106.419 Y111.000 F7800.000
G1 X107.000 Y111.054 F7800.000
G1 X107.000 Y116.706 E39.22991 F1800.000
G1 X105.742 Y110.137 F7800.000
G1 X106.741 Y109.926 E39.29436 F1800.000
G1 X107.767 Y109.639 E39.36165
G1 X110.106 Y109.165 F7800.000
G1 X109.708 Y108.766 E39.40007 F1800.000
G1 X110.429 Y108.126 E39.46582
G1 X111.469 Y109.165 E39.56598
G1 X112.165 Y108.500 E39.63163
G1 X111.098 Y107.433 E39.73443
G1 X111.752 Y106.724 E39.80011
G1 X112.165 Y107.137 E39.83991
G1 X112.647 Y104.760 F7800.000
G1 X113.039 Y103.260 E39.93782 F1800.000
G1 X113.137 Y102.761 E39.96991
G1 X114.054 Y104.008 F7800.000
G1 X119.702 Y103.994 E40.32658 F1800.000
G1 X119.644 Y103.917 F7800.000
G1 X114.000 Y104.005 F7800.000
G1 X113.025 Y103.314 F7800.000
G1 X113.389 Y101.458 F7800.000
G1 X113.402 Y101.380 F7800.000
G1 X113.449 Y101.008 F7800.000
G1 X113.628 Y99.596 E40.51709 F1800.000
G1 X113.738 Y97.830 E40.75402
G1 X113.735 Y96.063 E40.99052
G1 X113.622 Y94.338 E41.22206
G1 X113.447 Y92.985 E41.40470
G1 X113.137 Y91.245 F7800.000
G1 X113.023 Y90.670 E41.44172 F1800.000
G1 X112.645 Y89.236 E41.53538
G1 X112.134 Y87.279 F7800.000
G1 X111.734 Y86.878 E41.59363 F1800.000
G1 X112.165 Y85.254 F7800.000
G1 X111.746 Y84.835 E41.65454 F1800.000
G1 X110.211 Y85.356 E41.82133
G1 X109.710 Y84.855 E41.89422
G1 X107.774 Y84.362 F7800.000
G1 X106.700 Y84.064 E41.96460 F1800.000
G1 X105.742 Y83.863 E42.02642
G1 X104.037 Y83.559 F7800.000
G1 X103.009 Y83.414 E42.16551 F1800.000
G1 X101.283 Y83.279 E42.39725
G1 X99.515 Y83.254 E42.63402
G1 X97.750 Y83.341 E42.87063
G1 X96.021 Y83.539 E43.10358
G1 X94.193 Y83.864 F7800.000
G1 X92.256 Y84.339 E43.22954 F1800.000
G1 X90.279 Y85.248 F7800.000
G1 X89.867 Y84.835 E43.26939 F1800.000
G1 X89.568 Y85.901 E43.34495
G1 X88.502 Y84.835 E43.44785
G1 X87.835 Y85.532 E43.51372
G1 X88.871 Y86.568 E43.61374
G1 X88.234 Y87.295 E43.67973
G1 X87.835 Y86.896 E43.71821
G1 X87.352 Y89.257 F7800.000
G1 X87.165 Y89.898 E43.76040 F1800.000
G1 X86.862 Y91.244 E43.84751
G1 X85.946 Y89.992 F7800.000
G1 X80.298 Y90.006 E44.20417 F1800.000
G1 X80.356 Y90.083 F7800.000
G1 X86.000 Y89.995 F7800.000
G1 X86.763 Y91.685 F7800.000
G1 X86.745 Y91.782 F7800.000
G1 X86.470 Y93.514 F7800.000
G1 X86.515 Y93.014 F7800.000
G1 X86.302 Y95.303 E44.51203 F1800.000
G1 X86.249 Y97.074 E44.74925
G1 X86.314 Y98.886 E44.99194
G1 X86.523 Y100.975 E45.27301
G1 X86.862 Y102.771 F7800.000
